X:1
T:Paddy O'Rafferty
C:Trad.
M:6/8
Q:200
K:D
dff cee |: faf gfe|[1 dfe dBA:|[2 dfe dcB |
dff cee ||: faf gfe|[1 dfe dBA:|[2 dfe dcB 
